build/documents/WebSolid.svg

<svg xmlns="http://www.w3.org/2000/svg" fill="none" viewBox="0 0 24 24" focusable="false"><path d="M0 0H24V24H0z"/><path fill="#74767B" fill-rule="evenodd" d="M17.65 3.3501C19.3069 3.3501 20.65 4.69324 20.65 6.3501L20.65 16.3501C20.65 18.007 19.3069 19.3501 17.65 19.3501L9.65 19.3501C7.99314 19.3501 6.65 18.007 6.65 16.3501L6.65 6.3501C6.65 4.69324 7.99314 3.3501 9.65 3.3501L17.65 3.3501ZM18.3572 11.125C18.3572 8.52695 16.2511 6.42078 13.653 6.42078C11.0549 6.42078 8.94873 8.52694 8.94873 11.125C8.94873 13.7231 11.0549 15.8293 13.653 15.8293C16.2511 15.8293 18.3572 13.7231 18.3572 11.125ZM12.8734 10.475C12.9355 9.59727 13.1192 8.85279 13.3533 8.32903C13.4628 8.08399 13.569 7.91935 13.653 7.81669C13.737 7.91935 13.8432 8.08399 13.9527 8.32903C14.1868 8.85279 14.3705 9.59727 14.4326 10.475L12.8734 10.475ZM12.0313 8.13111C11.7893 8.78679 11.6251 9.59173 11.5706 10.475L10.3107 10.475C10.5067 9.46155 11.1521 8.60834 12.0313 8.13111ZM16.9952 10.475L15.7354 10.475C15.6809 9.59174 15.5167 8.7868 15.2747 8.13112C16.1539 8.60836 16.7993 9.46156 16.9952 10.475ZM4 9.3501C4 8.99111 4.29101 8.7001 4.65 8.7001C5.00898 8.7001 5.3 8.99111 5.3 9.3501L5.3 18.7501C5.3 19.8271 6.17304 20.7001 7.25 20.7001L15.65 20.7001C16.009 20.7001 16.3 20.9911 16.3 21.3501C16.3 21.7091 16.009 22.0001 15.65 22.0001L7.25 22.0001C5.45507 22.0001 4 20.545 4 18.7501L4 9.3501ZM12.0313 14.119C11.1521 13.6417 10.5066 12.7885 10.3107 11.775L11.5706 11.775C11.6251 12.6583 11.7893 13.4633 12.0313 14.119ZM13.3533 13.921C13.1192 13.3973 12.9355 12.6528 12.8734 11.775L14.4326 11.775C14.3705 12.6528 14.1868 13.3973 13.9527 13.921C13.8432 14.1661 13.737 14.3307 13.653 14.4334C13.569 14.3307 13.4628 14.1661 13.3533 13.921ZM16.9953 11.775C16.7993 12.7885 16.1539 13.6417 15.2747 14.1189C15.5167 13.4632 15.6809 12.6583 15.7354 11.775L16.9953 11.775Z"/></svg>

<svg xmlns="http://www.w3.org/2000/svg" fill="none" viewBox="0 0 24 24" focusable="false"><path fill="#74767B" fill-rule="evenodd" d="M17.64 3.35c1.66 0 3 1.34 3 3v10c0 1.65-1.34 3-3 3h-8c-1.65 0-3-1.35-3-3v-10c0-1.66 1.35-3 3-3zm.71 7.77c0-2.6-2.1-4.7-4.7-4.7s-4.71 2.1-4.71 4.7 2.11 4.7 4.71 4.7 4.7-2.1 4.7-4.7m-5.48-.65c.06-.88.24-1.62.48-2.15q.165-.36.3-.51c.08.1.19.27.3.51.23.53.42 1.27.48 2.15zm-.84-2.34c-.25.65-.41 1.46-.46 2.34h-1.26c.19-1.01.84-1.87 1.72-2.34m4.96 2.34h-1.26c-.05-.88-.22-1.69-.46-2.34.88.47 1.52 1.33 1.72 2.34M4 9.35c0-.36.29-.65.64-.65.36 0 .66.29.66.65v9.4c0 1.07.87 1.95 1.95 1.95h8.39c.36 0 .65.29.65.65 0 .35-.29.65-.65.65H7.25A3.25 3.25 0 0 1 4 18.75zm8.03 4.76a3.37 3.37 0 0 1-1.72-2.34h1.26c.05.88.21 1.69.46 2.34m1.32-.19c-.24-.53-.42-1.27-.48-2.15h1.56c-.06.88-.25 1.62-.48 2.15-.11.24-.22.41-.3.51q-.135-.15-.3-.51m3.64-2.15c-.2 1.01-.84 1.87-1.72 2.34.24-.65.41-1.46.46-2.34z"/></svg>
